symbolic/22x22/apps/brackets.svg

<svg xmlns="http://www.w3.org/2000/svg" width="22" height="22" version="1"><g transform="translate(-1 -1)"><rect style="opacity:.2" width="20" height="20" x="2" y="2.5" rx="1" ry="1"/><rect style="fill:#29aae2" width="20" height="20" x="2" y="2" rx="1" ry="1"/><rect style="fill:#fff" width="16" height="16" x="4" y="4" rx="1" ry="1"/><path style="fill:#424242" d="M5 5v14h6v-3H8V8h3V5zm8 0v3h3v8h-3v3h6V5z"/><path style="opacity:.2;fill:#fff" d="M3 2c-.554 0-1 .446-1 1v.5c0-.554.446-1 1-1h18c.554 0 1 .446 1 1V3c0-.554-.446-1-1-1z"/></g></svg>

<svg xmlns="http://www.w3.org/2000/svg" width="22" height="22" version="1">
 <g transform="translate(-1,-1)">
  <rect style="opacity:0.2" width="20" height="20" x="2" y="2.5" rx="1" ry="1"/>
  <rect style="fill:#29aae2" width="20" height="20" x="2" y="2" rx="1" ry="1"/>
  <rect style="fill:#ffffff" width="16" height="16" x="4" y="4" rx="1" ry="1"/>
  <path style="fill:#424242" d="M 5,5 V 19 H 11 V 16 H 8 V 8 H 11 V 5 Z M 13,5 V 8 H 16 V 16 H 13 V 19 H 19 V 5 Z"/>
  <path style="opacity:0.2;fill:#ffffff" d="M 3,2 C 2.446,2 2,2.446 2,3 V 3.5 C 2,2.946 2.446,2.5 3,2.5 H 21 C 21.554,2.5 22,2.946 22,3.5 V 3 C 22,2.446 21.554,2 21,2 Z"/>
 </g>
</svg>
